svg/emoji_u1f921.svg

<svg xmlns="http://www.w3.org/2000/svg" viewBox="0 0 128 128"><path d="M63.81 22.62c-60.09 0-61.52 67.36-61.52 80.7 0 13.33 27.55 24.14 61.52 24.14 33.98 0 61.52-10.81 61.52-24.14-.01-13.33-1.43-80.7-61.52-80.7z" fill="#ffe6b3"/><path d="M102.49 101.65c-8.23 2.95-17.3-1.21-20.29-9.33-2.98-8.11 1.24-17.09 9.46-20.06 8.2-2.95 17.3 1.23 20.3 9.34 2.98 8.12-1.26 17.1-9.47 20.05z" fill="#fce8bb"/><path d="M102.27 101.05c-7.89 2.83-16.6-1.16-19.47-8.95-2.85-7.78 1.2-16.4 9.09-19.24 7.87-2.83 16.59 1.18 19.47 8.96 2.85 7.79-1.21 16.4-9.09 19.23z" fill="#fce4b8"/><path d="M102.05 100.45c-7.56 2.71-15.89-1.11-18.64-8.57-2.74-7.45 1.14-15.7 8.69-18.43 7.54-2.71 15.89 1.13 18.65 8.58 2.74 7.46-1.16 15.71-8.7 18.42z" fill="#fcdfb5"/><path d="M101.83 99.85c-7.22 2.59-15.19-1.06-17.81-8.19-2.62-7.12 1.09-15 8.31-17.61 7.2-2.59 15.18 1.08 17.82 8.2 2.61 7.13-1.11 15.02-8.32 17.6z" fill="#fcdbb3"/><path d="M101.61 99.25c-6.89 2.47-14.48-1.02-16.99-7.81-2.5-6.79 1.04-14.31 7.92-16.79 6.87-2.47 14.48 1.03 16.99 7.82 2.5 6.8-1.05 14.32-7.92 16.78z" fill="#fdd6b0"/><path d="M101.39 98.66c-6.55 2.35-13.78-.97-16.16-7.43-2.37-6.46.99-13.61 7.54-15.98 6.53-2.35 13.77.98 16.17 7.44 2.37 6.47-1.01 13.62-7.55 15.97z" fill="#fdd2ad"/><path d="M101.17 98.06c-6.22 2.23-13.08-.92-15.33-7.05s.94-12.92 7.15-15.16c6.2-2.23 13.07.93 15.34 7.06 2.25 6.13-.96 12.92-7.16 15.15z" fill="#fdcdaa"/><path d="M100.95 97.46c-5.88 2.11-12.37-.87-14.51-6.67-2.13-5.8.89-12.22 6.77-14.34 5.87-2.11 12.37.88 14.51 6.68 2.13 5.8-.9 12.22-6.77 14.33z" fill="#fdc9a7"/><path d="M100.73 96.86c-5.55 1.99-11.67-.82-13.68-6.29s.84-11.52 6.38-13.53c5.53-1.99 11.66.83 13.69 6.3 2 5.48-.85 11.53-6.39 13.52z" fill="#fdc4a5"/><path d="M100.51 96.26c-5.21 1.87-10.96-.77-12.86-5.91-1.89-5.14.79-10.83 6-12.71 5.2-1.87 10.96.78 12.86 5.92 1.89 5.14-.8 10.84-6 12.7z" fill="#fdc0a2"/><path d="M100.29 95.66c-4.88 1.75-10.26-.72-12.03-5.53-1.77-4.81.74-10.13 5.61-11.89 4.86-1.75 10.25.73 12.03 5.54 1.77 4.81-.74 10.14-5.61 11.88z" fill="#fdbb9f"/><path d="M100.07 95.07c-4.54 1.63-9.55-.67-11.2-5.15-1.65-4.48.69-9.44 5.22-11.08 4.53-1.63 9.55.68 11.21 5.16 1.64 4.48-.7 9.44-5.23 11.07z" fill="#feb79c"/><path d="M99.85 94.47c-4.21 1.51-8.85-.62-10.38-4.77-1.53-4.15.64-8.74 4.84-10.26 4.2-1.51 8.85.63 10.38 4.78 1.53 4.15-.64 8.74-4.84 10.25z" fill="#feb299"/><path d="M99.63 93.87c-3.87 1.39-8.15-.57-9.55-4.39-1.4-3.82.58-8.04 4.45-9.44 3.86-1.39 8.14.58 9.56 4.4 1.4 3.81-.6 8.04-4.46 9.43z" fill="#feae96"/><path d="M99.41 93.27c-3.54 1.27-7.44-.52-8.73-4.01-1.28-3.49.53-7.35 4.07-8.63 3.53-1.27 7.44.53 8.73 4.02 1.28 3.49-.54 7.35-4.07 8.62z" fill="#fea994"/><path d="M99.19 92.67c-3.2 1.15-6.74-.47-7.9-3.63-1.16-3.16.48-6.65 3.68-7.81 3.19-1.15 6.73.48 7.9 3.64 1.16 3.16-.49 6.65-3.68 7.8z" fill="#fea591"/><path d="M98.97 92.07c-2.87 1.03-6.03-.43-7.07-3.25-1.04-2.83.43-5.96 3.3-6.99 2.86-1.03 6.03.43 7.08 3.26 1.03 2.83-.45 5.96-3.31 6.98z" fill="#fea08e"/><path d="M98.75 91.48c-2.53.91-5.33-.38-6.25-2.87-.92-2.5.38-5.26 2.91-6.18 2.53-.91 5.32.38 6.25 2.88.92 2.49-.39 5.26-2.91 6.17z" fill="#fe9c8b"/><path d="M98.53 90.88c-2.2.79-4.62-.33-5.42-2.49-.8-2.17.33-4.57 2.53-5.36 2.19-.79 4.62.33 5.42 2.5.79 2.16-.34 4.56-2.53 5.35z" fill="#ff9788"/><path d="M98.31 90.28c-1.86.67-3.92-.28-4.59-2.11-.68-1.84.28-3.87 2.14-4.54 1.86-.67 3.92.28 4.6 2.12.67 1.83-.29 3.86-2.15 4.53z" fill="#ff9386"/><path d="M98.09 89.68c-1.53.55-3.21-.23-3.77-1.73-.55-1.51.23-3.17 1.76-3.73 1.52-.55 3.21.23 3.77 1.74.55 1.5-.24 3.17-1.76 3.72z" fill="#ff8e83"/><path d="M97.87 89.08c-1.19.43-2.51-.18-2.94-1.35-.43-1.18.18-2.48 1.37-2.91 1.19-.43 2.51.18 2.94 1.35.43 1.18-.18 2.48-1.37 2.91z" fill="#ff8a80"/><g><path d="M35.94 102.41c-8.23 2.95-17.3-1.21-20.29-9.33-2.98-8.11 1.24-17.09 9.46-20.06 8.2-2.95 17.3 1.23 20.3 9.34 2.98 8.12-1.26 17.1-9.47 20.05z" fill="#fce8bb"/><path d="M35.72 101.81c-7.89 2.83-16.6-1.16-19.47-8.95-2.86-7.78 1.19-16.4 9.08-19.24 7.87-2.83 16.59 1.18 19.47 8.96 2.86 7.79-1.21 16.4-9.08 19.23z" fill="#fce4b8"/><path d="M35.5 101.21c-7.56 2.71-15.89-1.11-18.64-8.57-2.74-7.45 1.14-15.7 8.69-18.43 7.54-2.71 15.89 1.13 18.65 8.58 2.73 7.46-1.16 15.71-8.7 18.42z" fill="#fcdfb5"/><path d="M35.28 100.61c-7.22 2.59-15.19-1.07-17.81-8.19-2.62-7.12 1.09-15.01 8.31-17.61 7.2-2.59 15.18 1.08 17.82 8.2 2.61 7.13-1.12 15.02-8.32 17.6z" fill="#fcdbb3"/><path d="M35.06 100.01c-6.89 2.47-14.49-1.02-16.99-7.81-2.5-6.79 1.04-14.31 7.92-16.79 6.87-2.47 14.48 1.03 16.99 7.82 2.5 6.8-1.05 14.32-7.92 16.78z" fill="#fdd6b0"/><path d="M34.84 99.42c-6.55 2.35-13.78-.97-16.16-7.43-2.37-6.46.99-13.61 7.54-15.98 6.53-2.35 13.77.98 16.17 7.44 2.36 6.47-1.01 13.62-7.55 15.97z" fill="#fdd2ad"/><path d="M34.62 98.82c-6.22 2.23-13.08-.92-15.33-7.05s.94-12.92 7.15-15.16c6.2-2.23 13.07.93 15.34 7.06 2.24 6.13-.96 12.92-7.16 15.15z" fill="#fdcdaa"/><path d="M34.4 98.22c-5.88 2.11-12.37-.87-14.51-6.67-2.13-5.8.89-12.22 6.77-14.34 5.87-2.11 12.37.88 14.51 6.68 2.13 5.8-.9 12.22-6.77 14.33z" fill="#fdc9a7"/><path d="M34.18 97.62c-5.55 1.99-11.67-.82-13.68-6.29s.84-11.53 6.38-13.53c5.53-1.99 11.66.83 13.69 6.3 2 5.48-.86 11.53-6.39 13.52z" fill="#fdc4a5"/><path d="M33.96 97.02c-5.21 1.87-10.96-.77-12.86-5.91-1.89-5.14.79-10.83 6-12.71 5.2-1.87 10.96.78 12.86 5.92 1.88 5.15-.8 10.84-6 12.7z" fill="#fdc0a2"/><path d="M33.74 96.43c-4.88 1.75-10.26-.72-12.03-5.53-1.77-4.81.74-10.13 5.61-11.89 4.86-1.75 10.25.73 12.03 5.54 1.77 4.8-.75 10.13-5.61 11.88z" fill="#fdbb9f"/><path d="M33.52 95.83c-4.54 1.63-9.55-.67-11.2-5.15-1.65-4.48.68-9.44 5.22-11.08 4.53-1.63 9.55.68 11.21 5.16 1.64 4.48-.7 9.44-5.23 11.07z" fill="#feb79c"/><path d="M33.3 95.23c-4.21 1.51-8.85-.62-10.38-4.77-1.53-4.15.63-8.74 4.84-10.26 4.2-1.51 8.85.63 10.38 4.78 1.52 4.15-.65 8.74-4.84 10.25z" fill="#feb299"/><path d="M33.08 94.63c-3.87 1.39-8.15-.57-9.55-4.39-1.4-3.82.58-8.05 4.45-9.44 3.86-1.39 8.14.58 9.56 4.4 1.39 3.82-.6 8.04-4.46 9.43z" fill="#feae96"/><path d="M32.86 94.03c-3.54 1.27-7.44-.52-8.72-4.01-1.28-3.49.53-7.35 4.07-8.63 3.53-1.27 7.44.53 8.73 4.02 1.27 3.49-.56 7.35-4.08 8.62z" fill="#fea994"/><path d="M32.63 93.43c-3.2 1.15-6.74-.47-7.9-3.63-1.16-3.16.48-6.66 3.68-7.81 3.19-1.15 6.73.48 7.9 3.64s-.48 6.66-3.68 7.8z" fill="#fea591"/><path d="M32.41 92.84c-2.87 1.03-6.03-.42-7.07-3.25s.43-5.96 3.3-6.99c2.86-1.03 6.03.43 7.08 3.26 1.03 2.82-.44 5.95-3.31 6.98z" fill="#fea08e"/><path d="M32.19 92.24c-2.53.91-5.33-.38-6.25-2.87-.92-2.5.38-5.26 2.91-6.18 2.53-.91 5.32.38 6.25 2.88.93 2.49-.38 5.26-2.91 6.17z" fill="#fe9c8b"/><path d="M31.97 91.64c-2.2.79-4.62-.33-5.42-2.49-.8-2.17.33-4.57 2.53-5.36 2.19-.79 4.62.33 5.42 2.5.8 2.16-.33 4.56-2.53 5.35z" fill="#ff9788"/><path d="M31.75 91.04c-1.86.67-3.92-.28-4.59-2.11-.68-1.84.28-3.87 2.14-4.54 1.86-.67 3.92.28 4.6 2.11.67 1.84-.29 3.87-2.15 4.54z" fill="#ff9386"/><path d="M31.53 90.44c-1.53.55-3.21-.23-3.77-1.73-.56-1.51.23-3.18 1.76-3.73 1.52-.55 3.21.23 3.77 1.73.56 1.52-.23 3.18-1.76 3.73z" fill="#ff8e83"/><path d="M31.31 89.85c-1.19.42-2.51-.18-2.94-1.35-.43-1.18.18-2.48 1.37-2.91 1.19-.43 2.51.18 2.94 1.35.44 1.17-.18 2.48-1.37 2.91z" fill="#ff8a80"/></g><g><ellipse cx="86.59" cy="66.61" rx="11.79" ry="12.6" fill="#fff"/><ellipse cx="41" cy="66.61" rx="11.79" ry="12.6" fill="#fff"/><path d="M41.06 73.32c-3.12.03-5.67-2.81-5.71-6.34-.03-3.54 2.47-6.43 5.58-6.45 3.11-.03 5.67 2.81 5.71 6.36.03 3.52-2.47 6.4-5.58 6.43zM86.61 73.32c3.11 0 5.64-2.87 5.63-6.4-.01-3.54-2.54-6.4-5.66-6.39-3.12.01-5.65 2.87-5.64 6.42.01 3.52 2.55 6.38 5.67 6.37z" fill="#2f2f2f"/></g><circle cx="63.81" cy="81.08" r="9.77" fill="#db4437"/><path d="M63.86 110.87c-8.79 0-16.66-2.88-22.12-7.31-3.36-2.73-5.51-4.56-6.53-8.31-.91-3.33 2.05-6.85 7.28-2.05 2.1 1.93 8.79 7.89 21.37 7.89s19.26-5.97 21.37-7.89c5.23-4.8 8.19-1.28 7.28 2.05-1.03 3.75-3.17 5.57-6.53 8.31-5.46 4.43-13.33 7.31-22.12 7.31z" fill="#421503" stroke="#db4437" stroke-width="7.286" stroke-miterlimit="10"/><g fill="#3890f9"><circle cx="15.84" cy="53.2" r="10.8"/><circle cx="12.4" cy="46.15" r="11.18"/><circle cx="18.56" cy="37.77" r="13.08"/><circle cx="28.76" cy="44.47" r="10.8"/><circle cx="23.58" cy="36.93" r="11.85"/><circle cx="29.76" cy="24.79" r="13.08"/><circle cx="44.23" cy="39.05" r="10.8"/><circle cx="40.02" cy="26.51" r="11.85"/><circle cx="46.7" cy="16.48" r="13.08"/><circle cx="112.21" cy="53.2" r="10.8"/><circle cx="115.39" cy="46.12" r="11.16"/><circle cx="109.49" cy="37.77" r="13.08"/><circle cx="99.28" cy="44.47" r="10.8"/><circle cx="104.46" cy="36.93" r="11.85"/><circle cx="98.29" cy="24.79" r="13.08"/><circle cx="83.82" cy="39.05" r="10.8"/><circle cx="88.03" cy="26.51" r="11.85"/><circle cx="81.34" cy="16.48" r="13.08"/><circle cx="64.44" cy="13.62" r="13.08"/><circle cx="64.44" cy="27.19" r="16.12"/><circle cx="64.44" cy="35.16" r="12.64"/></g></svg>

<?xml version="1.0" encoding="utf-8"?>
<!-- Generator: Adobe Illustrator 19.2.1, SVG Export Plug-In . SVG Version: 6.00 Build 0)  -->
<svg version="1.1" id="图层_1" xmlns="http://www.w3.org/2000/svg" xmlns:xlink="http://www.w3.org/1999/xlink" x="0px" y="0px"
	 viewBox="0 0 128 128" style="enable-background:new 0 0 128 128;" xml:space="preserve">
<g>
	<path style="fill:#FFE6B3;" d="M63.81,22.62c-60.09,0-61.52,67.36-61.52,80.7c0,13.33,27.55,24.14,61.52,24.14
		c33.98,0,61.52-10.81,61.52-24.14C125.32,89.99,123.9,22.62,63.81,22.62z"/>
	<g>
		<g>
			<path style="fill:#FCE8BB;" d="M102.49,101.65c-8.23,2.95-17.3-1.21-20.29-9.33c-2.98-8.11,1.24-17.09,9.46-20.06
				c8.2-2.95,17.3,1.23,20.3,9.34C114.94,89.72,110.7,98.7,102.49,101.65z"/>
			<path style="fill:#FCE4B8;" d="M102.27,101.05c-7.89,2.83-16.6-1.16-19.47-8.95C79.95,84.32,84,75.7,91.89,72.86
				c7.87-2.83,16.59,1.18,19.47,8.96C114.21,89.61,110.15,98.22,102.27,101.05z"/>
			<path style="fill:#FCDFB5;" d="M102.05,100.45c-7.56,2.71-15.89-1.11-18.64-8.57c-2.74-7.45,1.14-15.7,8.69-18.43
				c7.54-2.71,15.89,1.13,18.65,8.58C113.49,89.49,109.59,97.74,102.05,100.45z"/>
			<path style="fill:#FCDBB3;" d="M101.83,99.85c-7.22,2.59-15.19-1.06-17.81-8.19c-2.62-7.12,1.09-15,8.31-17.61
				c7.2-2.59,15.18,1.08,17.82,8.2C112.76,89.38,109.04,97.27,101.83,99.85z"/>
			<path style="fill:#FDD6B0;" d="M101.61,99.25c-6.89,2.47-14.48-1.02-16.99-7.81c-2.5-6.79,1.04-14.31,7.92-16.79
				c6.87-2.47,14.48,1.03,16.99,7.82C112.03,89.27,108.48,96.79,101.61,99.25z"/>
			<path style="fill:#FDD2AD;" d="M101.39,98.66c-6.55,2.35-13.78-0.97-16.16-7.43c-2.37-6.46,0.99-13.61,7.54-15.98
				c6.53-2.35,13.77,0.98,16.17,7.44C111.31,89.16,107.93,96.31,101.39,98.66z"/>
			<path style="fill:#FDCDAA;" d="M101.17,98.06c-6.22,2.23-13.08-0.92-15.33-7.05c-2.25-6.13,0.94-12.92,7.15-15.16
				c6.2-2.23,13.07,0.93,15.34,7.06C110.58,89.04,107.37,95.83,101.17,98.06z"/>
			<path style="fill:#FDC9A7;" d="M100.95,97.46c-5.88,2.11-12.37-0.87-14.51-6.67c-2.13-5.8,0.89-12.22,6.77-14.34
				c5.87-2.11,12.37,0.88,14.51,6.68C109.85,88.93,106.82,95.35,100.95,97.46z"/>
			<path style="fill:#FDC4A5;" d="M100.73,96.86c-5.55,1.99-11.67-0.82-13.68-6.29c-2.01-5.47,0.84-11.52,6.38-13.53
				c5.53-1.99,11.66,0.83,13.69,6.3C109.12,88.82,106.27,94.87,100.73,96.86z"/>
			<path style="fill:#FDC0A2;" d="M100.51,96.26c-5.21,1.87-10.96-0.77-12.86-5.91c-1.89-5.14,0.79-10.83,6-12.71
				c5.2-1.87,10.96,0.78,12.86,5.92C108.4,88.7,105.71,94.4,100.51,96.26z"/>
			<path style="fill:#FDBB9F;" d="M100.29,95.66c-4.88,1.75-10.26-0.72-12.03-5.53C86.49,85.32,89,80,93.87,78.24
				c4.86-1.75,10.25,0.73,12.03,5.54C107.67,88.59,105.16,93.92,100.29,95.66z"/>
			<path style="fill:#FEB79C;" d="M100.07,95.07c-4.54,1.63-9.55-0.67-11.2-5.15c-1.65-4.48,0.69-9.44,5.22-11.08
				c4.53-1.63,9.55,0.68,11.21,5.16C106.94,88.48,104.6,93.44,100.07,95.07z"/>
			<path style="fill:#FEB299;" d="M99.85,94.47c-4.21,1.51-8.85-0.62-10.38-4.77c-1.53-4.15,0.64-8.74,4.84-10.26
				c4.2-1.51,8.85,0.63,10.38,4.78C106.22,88.37,104.05,92.96,99.85,94.47z"/>
			<path style="fill:#FEAE96;" d="M99.63,93.87c-3.87,1.39-8.15-0.57-9.55-4.39c-1.4-3.82,0.58-8.04,4.45-9.44
				c3.86-1.39,8.14,0.58,9.56,4.4C105.49,88.25,103.49,92.48,99.63,93.87z"/>
			<path style="fill:#FEA994;" d="M99.41,93.27c-3.54,1.27-7.44-0.52-8.73-4.01c-1.28-3.49,0.53-7.35,4.07-8.63
				c3.53-1.27,7.44,0.53,8.73,4.02C104.76,88.14,102.94,92,99.41,93.27z"/>
			<path style="fill:#FEA591;" d="M99.19,92.67c-3.2,1.15-6.74-0.47-7.9-3.63c-1.16-3.16,0.48-6.65,3.68-7.81
				c3.19-1.15,6.73,0.48,7.9,3.64C104.03,88.03,102.38,91.52,99.19,92.67z"/>
			<path style="fill:#FEA08E;" d="M98.97,92.07c-2.87,1.03-6.03-0.43-7.07-3.25c-1.04-2.83,0.43-5.96,3.3-6.99
				c2.86-1.03,6.03,0.43,7.08,3.26C103.31,87.92,101.83,91.05,98.97,92.07z"/>
			<path style="fill:#FE9C8B;" d="M98.75,91.48c-2.53,0.91-5.33-0.38-6.25-2.87c-0.92-2.5,0.38-5.26,2.91-6.18
				c2.53-0.91,5.32,0.38,6.25,2.88C102.58,87.8,101.27,90.57,98.75,91.48z"/>
			<path style="fill:#FF9788;" d="M98.53,90.88c-2.2,0.79-4.62-0.33-5.42-2.49c-0.8-2.17,0.33-4.57,2.53-5.36
				c2.19-0.79,4.62,0.33,5.42,2.5C101.85,87.69,100.72,90.09,98.53,90.88z"/>
			<path style="fill:#FF9386;" d="M98.31,90.28c-1.86,0.67-3.92-0.28-4.59-2.11c-0.68-1.84,0.28-3.87,2.14-4.54
				c1.86-0.67,3.92,0.28,4.6,2.12C101.13,87.58,100.17,89.61,98.31,90.28z"/>
			<path style="fill:#FF8E83;" d="M98.09,89.68c-1.53,0.55-3.21-0.23-3.77-1.73c-0.55-1.51,0.23-3.17,1.76-3.73
				c1.52-0.55,3.21,0.23,3.77,1.74C100.4,87.46,99.61,89.13,98.09,89.68z"/>
			<path style="fill:#FF8A80;" d="M97.87,89.08c-1.19,0.43-2.51-0.18-2.94-1.35c-0.43-1.18,0.18-2.48,1.37-2.91
				c1.19-0.43,2.51,0.18,2.94,1.35C99.67,87.35,99.06,88.65,97.87,89.08z"/>
		</g>
		<g>
			<path style="fill:#FCE8BB;" d="M35.94,102.41c-8.23,2.95-17.3-1.21-20.29-9.33c-2.98-8.11,1.24-17.09,9.46-20.06
				c8.2-2.95,17.3,1.23,20.3,9.34C48.39,90.48,44.15,99.46,35.94,102.41z"/>
			<path style="fill:#FCE4B8;" d="M35.72,101.81c-7.89,2.83-16.6-1.16-19.47-8.95c-2.86-7.78,1.19-16.4,9.08-19.24
				c7.87-2.83,16.59,1.18,19.47,8.96C47.66,90.37,43.59,98.98,35.72,101.81z"/>
			<path style="fill:#FCDFB5;" d="M35.5,101.21c-7.56,2.71-15.89-1.11-18.64-8.57c-2.74-7.45,1.14-15.7,8.69-18.43
				c7.54-2.71,15.89,1.13,18.65,8.58C46.93,90.25,43.04,98.5,35.5,101.21z"/>
			<path style="fill:#FCDBB3;" d="M35.28,100.61c-7.22,2.59-15.19-1.07-17.81-8.19c-2.62-7.12,1.09-15.01,8.31-17.61
				c7.2-2.59,15.18,1.08,17.82,8.2C46.21,90.14,42.48,98.03,35.28,100.61z"/>
			<path style="fill:#FDD6B0;" d="M35.06,100.01c-6.89,2.47-14.49-1.02-16.99-7.81c-2.5-6.79,1.04-14.31,7.92-16.79
				c6.87-2.47,14.48,1.03,16.99,7.82C45.48,90.03,41.93,97.55,35.06,100.01z"/>
			<path style="fill:#FDD2AD;" d="M34.84,99.42c-6.55,2.35-13.78-0.97-16.16-7.43c-2.37-6.46,0.99-13.61,7.54-15.98
				c6.53-2.35,13.77,0.98,16.17,7.44C44.75,89.92,41.38,97.07,34.84,99.42z"/>
			<path style="fill:#FDCDAA;" d="M34.62,98.82c-6.22,2.23-13.08-0.92-15.33-7.05c-2.25-6.13,0.94-12.92,7.15-15.16
				c6.2-2.23,13.07,0.93,15.34,7.06C44.02,89.8,40.82,96.59,34.62,98.82z"/>
			<path style="fill:#FDC9A7;" d="M34.4,98.22c-5.88,2.11-12.37-0.87-14.51-6.67c-2.13-5.8,0.89-12.22,6.77-14.34
				c5.87-2.11,12.37,0.88,14.51,6.68C43.3,89.69,40.27,96.11,34.4,98.22z"/>
			<path style="fill:#FDC4A5;" d="M34.18,97.62c-5.55,1.99-11.67-0.82-13.68-6.29c-2.01-5.47,0.84-11.53,6.38-13.53
				c5.53-1.99,11.66,0.83,13.69,6.3C42.57,89.58,39.71,95.63,34.18,97.62z"/>
			<path style="fill:#FDC0A2;" d="M33.96,97.02c-5.21,1.87-10.96-0.77-12.86-5.91c-1.89-5.14,0.79-10.83,6-12.71
				c5.2-1.87,10.96,0.78,12.86,5.92C41.84,89.47,39.16,95.16,33.96,97.02z"/>
			<path style="fill:#FDBB9F;" d="M33.74,96.43c-4.88,1.75-10.26-0.72-12.03-5.53c-1.77-4.81,0.74-10.13,5.61-11.89
				c4.86-1.75,10.25,0.73,12.03,5.54C41.12,89.35,38.6,94.68,33.74,96.43z"/>
			<path style="fill:#FEB79C;" d="M33.52,95.83c-4.54,1.63-9.55-0.67-11.2-5.15C20.67,86.2,23,81.24,27.54,79.6
				c4.53-1.63,9.55,0.68,11.21,5.16C40.39,89.24,38.05,94.2,33.52,95.83z"/>
			<path style="fill:#FEB299;" d="M33.3,95.23c-4.21,1.51-8.85-0.62-10.38-4.77c-1.53-4.15,0.63-8.74,4.84-10.26
				c4.2-1.51,8.85,0.63,10.38,4.78C39.66,89.13,37.49,93.72,33.3,95.23z"/>
			<path style="fill:#FEAE96;" d="M33.08,94.63c-3.87,1.39-8.15-0.57-9.55-4.39c-1.4-3.82,0.58-8.05,4.45-9.44
				c3.86-1.39,8.14,0.58,9.56,4.4C38.93,89.02,36.94,93.24,33.08,94.63z"/>
			<path style="fill:#FEA994;" d="M32.86,94.03c-3.54,1.27-7.44-0.52-8.72-4.01c-1.28-3.49,0.53-7.35,4.07-8.63
				c3.53-1.27,7.44,0.53,8.73,4.02C38.21,88.9,36.38,92.76,32.86,94.03z"/>
			<path style="fill:#FEA591;" d="M32.63,93.43c-3.2,1.15-6.74-0.47-7.9-3.63c-1.16-3.16,0.48-6.66,3.68-7.81
				c3.19-1.15,6.73,0.48,7.9,3.64C37.48,88.79,35.83,92.29,32.63,93.43z"/>
			<path style="fill:#FEA08E;" d="M32.41,92.84c-2.87,1.03-6.03-0.42-7.07-3.25c-1.04-2.83,0.43-5.96,3.3-6.99
				c2.86-1.03,6.03,0.43,7.08,3.26C36.75,88.68,35.28,91.81,32.41,92.84z"/>
			<path style="fill:#FE9C8B;" d="M32.19,92.24c-2.53,0.91-5.33-0.38-6.25-2.87c-0.92-2.5,0.38-5.26,2.91-6.18
				c2.53-0.91,5.32,0.38,6.25,2.88C36.03,88.56,34.72,91.33,32.19,92.24z"/>
			<path style="fill:#FF9788;" d="M31.97,91.64c-2.2,0.79-4.62-0.33-5.42-2.49c-0.8-2.17,0.33-4.57,2.53-5.36
				c2.19-0.79,4.62,0.33,5.42,2.5C35.3,88.45,34.17,90.85,31.97,91.64z"/>
			<path style="fill:#FF9386;" d="M31.75,91.04c-1.86,0.67-3.92-0.28-4.59-2.11c-0.68-1.84,0.28-3.87,2.14-4.54
				c1.86-0.67,3.92,0.28,4.6,2.11C34.57,88.34,33.61,90.37,31.75,91.04z"/>
			<path style="fill:#FF8E83;" d="M31.53,90.44c-1.53,0.55-3.21-0.23-3.77-1.73c-0.56-1.51,0.23-3.18,1.76-3.73
				c1.52-0.55,3.21,0.23,3.77,1.73C33.85,88.23,33.06,89.89,31.53,90.44z"/>
			<path style="fill:#FF8A80;" d="M31.31,89.85c-1.19,0.42-2.51-0.18-2.94-1.35c-0.43-1.18,0.18-2.48,1.37-2.91
				c1.19-0.43,2.51,0.18,2.94,1.35C33.12,88.11,32.5,89.42,31.31,89.85z"/>
		</g>
	</g>
	<g>
		<ellipse style="fill:#FFFFFF;" cx="86.59" cy="66.61" rx="11.79" ry="12.6"/>
		<ellipse style="fill:#FFFFFF;" cx="41" cy="66.61" rx="11.79" ry="12.6"/>
		<g>
			<path style="fill:#2F2F2F;" d="M41.06,73.32c-3.12,0.03-5.67-2.81-5.71-6.34c-0.03-3.54,2.47-6.43,5.58-6.45
				c3.11-0.03,5.67,2.81,5.71,6.36C46.67,70.41,44.17,73.29,41.06,73.32z"/>
		</g>
		<g>
			<path style="fill:#2F2F2F;" d="M86.61,73.32c3.11,0,5.64-2.87,5.63-6.4c-0.01-3.54-2.54-6.4-5.66-6.39
				c-3.12,0.01-5.65,2.87-5.64,6.42C80.95,70.47,83.49,73.33,86.61,73.32z"/>
		</g>
	</g>
	<circle style="fill:#DB4437;" cx="63.81" cy="81.08" r="9.77"/>
	<path style="fill:#421503;stroke:#DB4437;stroke-width:7.2863;stroke-miterlimit:10;" d="M63.86,110.87
		c-8.79,0-16.66-2.88-22.12-7.31c-3.36-2.73-5.51-4.56-6.53-8.31c-0.91-3.33,2.05-6.85,7.28-2.05c2.1,1.93,8.79,7.89,21.37,7.89
		s19.26-5.97,21.37-7.89c5.23-4.8,8.19-1.28,7.28,2.05c-1.03,3.75-3.17,5.57-6.53,8.31C80.52,107.99,72.65,110.87,63.86,110.87z"/>
</g>
<g>
	<circle style="fill:#3890F9;" cx="15.84" cy="53.2" r="10.8"/>
	<circle style="fill:#3890F9;" cx="12.4" cy="46.15" r="11.18"/>
	<circle style="fill:#3890F9;" cx="18.56" cy="37.77" r="13.08"/>
	<circle style="fill:#3890F9;" cx="28.76" cy="44.47" r="10.8"/>
	<circle style="fill:#3890F9;" cx="23.58" cy="36.93" r="11.85"/>
	<circle style="fill:#3890F9;" cx="29.76" cy="24.79" r="13.08"/>
	<circle style="fill:#3890F9;" cx="44.23" cy="39.05" r="10.8"/>
	<circle style="fill:#3890F9;" cx="40.02" cy="26.51" r="11.85"/>
	<circle style="fill:#3890F9;" cx="46.7" cy="16.48" r="13.08"/>
	<circle style="fill:#3890F9;" cx="112.21" cy="53.2" r="10.8"/>
	<circle style="fill:#3890F9;" cx="115.39" cy="46.12" r="11.16"/>
	<circle style="fill:#3890F9;" cx="109.49" cy="37.77" r="13.08"/>
	<circle style="fill:#3890F9;" cx="99.28" cy="44.47" r="10.8"/>
	<circle style="fill:#3890F9;" cx="104.46" cy="36.93" r="11.85"/>
	<circle style="fill:#3890F9;" cx="98.29" cy="24.79" r="13.08"/>
	<circle style="fill:#3890F9;" cx="83.82" cy="39.05" r="10.8"/>
	<circle style="fill:#3890F9;" cx="88.03" cy="26.51" r="11.85"/>
	<circle style="fill:#3890F9;" cx="81.34" cy="16.48" r="13.08"/>
	<circle style="fill:#3890F9;" cx="64.44" cy="13.62" r="13.08"/>
	<circle style="fill:#3890F9;" cx="64.44" cy="27.19" r="16.12"/>
	<circle style="fill:#3890F9;" cx="64.44" cy="35.16" r="12.64"/>
</g>
</svg>
